X:419
T: Carbonard (138), S. 312
N: T0307
O: Luxemburg
S: Singendes Volk, Esch-Alzette 1937, posth.]
N: Straen, fff Witry, 1933
R: historische, Kriegs- und Soldatenlieder]
M: 4/4
L: 1/8
K: G
D | GGG3ABA | G2z
BBABc | d2cBA2z
B | B2BBd2BB | BABcd3
c | BAAAG2GG | ddddd3
B | BAGAB2A2 | G2z6

@@@ Tune index: 8473
